24x24/apps/minuet.svg

<svg xmlns="http://www.w3.org/2000/svg" width="24" height="24" version="1">
 <path style="opacity:0.2" d="M 23,21.444519 V 4.5561516 C 23,3.9707419 22.509231,3.5 21.9,3.5 H 2.1 C 1.4905436,3.5 1,3.9707419 1,4.555481 V 21.444966 C 1,22.029482 1.4905436,22.5 2.1,22.5 h 19.8 c 0.6094,0 1.1,-0.470764 1.1,-1.055526 z"/>
 <path style="fill:#4f4f4f" d="M 23,20.944519 V 4.0561516 C 23,3.4707419 22.509231,3 21.9,3 H 2.1 C 1.4905436,3 1,3.4707419 1,4.055481 V 20.944966 C 1,21.529482 1.4905436,22 2.1,22 h 19.8 c 0.6094,0 1.1,-0.470764 1.1,-1.055526 z"/>
 <rect style="opacity:0.2" width="3" height="15" x="3" y="5.5" ry=".5"/>
 <rect style="fill:#da6156" width="3" height="15" x="3" y="5" ry=".5"/>
 <rect style="opacity:0.2" width="3" height="15" x="6" y="5.5" ry=".5"/>
 <rect style="fill:#eb8644" width="3" height="15" x="6" y="5" ry=".5"/>
 <rect style="opacity:0.2" width="2" height="15" x="9" y="5.5" ry=".5"/>
 <rect style="fill:#ecb554" width="2" height="15" x="9" y="5" ry=".5"/>
 <rect style="opacity:0.2" width="3" height="15" x="11" y="5.5" ry=".5"/>
 <rect style="fill:#40a95d" width="3" height="15" x="11" y="5" ry=".5"/>
 <rect style="opacity:0.2" width="3" height="15" x="14" y="5.5" ry=".5"/>
 <rect style="fill:#4cb094" width="3" height="15" x="14" y="5" ry=".5"/>
 <rect style="opacity:0.2" width="2" height="15" x="17" y="5.5" ry=".5"/>
 <rect style="fill:#476eb9" width="2" height="15" x="17" y="5" ry=".5"/>
 <rect style="opacity:0.2" width="2" height="15" x="19" y="5.5" ry=".5"/>
 <path style="opacity:0.2" d="M 4.4941406,4.5 C 4.2199406,4.5 4,4.7199406 4,4.9941406 V 13.005859 C 4,13.279859 4.2199406,13.5 4.4941406,13.5 H 5.5058594 C 5.7800594,13.5 6,13.279859 6,13.005859 V 4.9941406 C 6,4.7199406 5.7800594,4.5 5.5058594,4.5 Z m 3,0 C 7.2199406,4.5 7,4.7199406 7,4.9941406 V 13.005859 C 7,13.279859 7.2199406,13.5 7.4941406,13.5 H 8.5058594 C 8.7800594,13.5 9,13.279859 9,13.005859 V 4.9941406 C 9,4.7199406 8.7800594,4.5 8.5058594,4.5 Z m 4.0000004,0 C 11.220141,4.5 11,4.7199406 11,4.9941406 V 13.005859 C 11,13.279859 11.220141,13.5 11.494141,13.5 h 1.009765 C 12.777906,13.5 13,13.279859 13,13.005859 V 4.9941406 C 13,4.7199406 12.777906,4.5 12.503906,4.5 Z m 3,0 C 14.220141,4.5 14,4.7199406 14,4.9941406 V 13.005859 C 14,13.279859 14.220141,13.5 14.494141,13.5 h 1.009765 C 15.777906,13.5 16,13.279859 16,13.005859 V 4.9941406 C 16,4.7198406 15.777906,4.5 15.503906,4.5 Z m 3,0 C 17.220141,4.5 17,4.7199406 17,4.9941406 V 13.005859 C 17,13.279859 17.220141,13.5 17.494141,13.5 h 1.009765 C 18.777906,13.5 19,13.279859 19,13.005859 V 4.9941406 C 19,4.7199406 18.777906,4.5 18.503906,4.5 Z"/>
 <rect style="fill:#a860a2" width="2" height="15" x="19" y="5" ry=".5"/>
 <path style="fill:#4f4f4f" d="M 4.4941406,4 C 4.2199406,4 4,4.2199406 4,4.4941406 V 12.505859 C 4,12.779859 4.2199406,13 4.4941406,13 H 5.5058594 C 5.7800594,13 6,12.779859 6,12.505859 V 4.4941406 C 6,4.2199406 5.7800594,4 5.5058594,4 Z m 3,0 C 7.2199406,4 7,4.2199406 7,4.4941406 V 12.505859 C 7,12.779859 7.2199406,13 7.4941406,13 H 8.5058594 C 8.7800594,13 9,12.779859 9,12.505859 V 4.4941406 C 9,4.2199406 8.7800594,4 8.5058594,4 Z M 11.494141,4 C 11.220141,4 11,4.2199406 11,4.4941406 V 12.505859 C 11,12.779859 11.220141,13 11.494141,13 h 1.009765 C 12.777906,13 13,12.779859 13,12.505859 V 4.4941406 C 13,4.2199406 12.777906,4 12.503906,4 Z m 3,0 C 14.220141,4 14,4.2199406 14,4.4941406 V 12.505859 C 14,12.779859 14.220141,13 14.494141,13 h 1.009765 C 15.777906,13 16,12.779859 16,12.505859 V 4.4941406 C 16,4.2198406 15.777906,4 15.503906,4 Z m 3,0 C 17.220141,4 17,4.2199406 17,4.4941406 V 12.505859 C 17,12.779859 17.220141,13 17.494141,13 h 1.009765 C 18.777906,13 19,12.779859 19,12.505859 V 4.4941406 C 19,4.2199406 18.777906,4 18.503906,4 Z"/>
 <path style="fill:#f4f4f7;opacity:0.1" d="M 2.0996094 3 C 1.490153 3 1 3.4699484 1 4.0546875 L 1 4.5546875 C 1 3.9699484 1.490153 3.5 2.0996094 3.5 L 21.900391 3.5 C 22.509622 3.5 23 3.9712309 23 4.5566406 L 23 4.0566406 C 23 3.4712309 22.509622 3 21.900391 3 L 2.0996094 3 z"/>
 <path style="opacity:0.1;fill:#f4f4f7" d="M 4.4941406,4.0004 C 4.2199406,4.0004 4,4.2203406 4,4.4945406 v 0.5 C 4,4.7203406 4.2199406,4.5004 4.4941406,4.5004 H 5.5058594 C 5.7800594,4.5004 6,4.7203406 6,4.9945406 v -0.5 C 6,4.2203406 5.7800594,4.0004 5.5058594,4.0004 Z m 3,0 C 7.2199406,4.0004 7,4.2203406 7,4.4945406 v 0.5 C 7,4.7203406 7.2199406,4.5004 7.4941406,4.5004 H 8.5058594 C 8.7800594,4.5004 9,4.7203406 9,4.9945406 v -0.5 C 9,4.2203406 8.7800594,4.0004 8.5058594,4.0004 Z m 4.0000004,0 C 11.220141,4.0004 11,4.2203406 11,4.4945406 v 0.5 C 11,4.7203406 11.220141,4.5004 11.494141,4.5004 h 1.009765 C 12.777906,4.5004 13,4.7203406 13,4.9945406 v -0.5 C 13,4.2203406 12.777906,4.0004 12.503906,4.0004 Z m 3,0 C 14.220141,4.0004 14,4.2203406 14,4.4945406 v 0.5 C 14,4.7203406 14.220141,4.5004 14.494141,4.5004 h 1.009765 C 15.777906,4.5004 16,4.7202406 16,4.9945406 v -0.5 C 16,4.2202406 15.777906,4.0004 15.503906,4.0004 Z m 3,0 C 17.220141,4.0004 17,4.2203406 17,4.4945406 v 0.5 C 17,4.7203406 17.220141,4.5004 17.494141,4.5004 h 1.009765 C 18.777906,4.5004 19,4.7203406 19,4.9945406 v -0.5 C 19,4.2203406 18.777906,4.0004 18.503906,4.0004 Z"/>
</svg>

<svg xmlns="http://www.w3.org/2000/svg" width="24" height="24" version="1"><path style="opacity:.2" d="M23 21.445V4.556c0-.585-.49-1.056-1.1-1.056H2.1c-.61 0-1.1.47-1.1 1.055v16.89c0 .584.49 1.055 1.1 1.055h19.8c.61 0 1.1-.47 1.1-1.056z"/><path style="fill:#4f4f4f" d="M23 20.945V4.056C23 3.471 22.51 3 21.9 3H2.1C1.49 3 1 3.47 1 4.055v16.89C1 21.529 1.49 22 2.1 22h19.8c.61 0 1.1-.47 1.1-1.056z"/><rect style="opacity:.2" width="3" height="15" x="3" y="5.5" ry=".5"/><rect style="fill:#da6156" width="3" height="15" x="3" y="5" ry=".5"/><rect style="opacity:.2" width="3" height="15" x="6" y="5.5" ry=".5"/><rect style="fill:#eb8644" width="3" height="15" x="6" y="5" ry=".5"/><rect style="opacity:.2" width="2" height="15" x="9" y="5.5" ry=".5"/><rect style="fill:#ecb554" width="2" height="15" x="9" y="5" ry=".5"/><rect style="opacity:.2" width="3" height="15" x="11" y="5.5" ry=".5"/><rect style="fill:#40a95d" width="3" height="15" x="11" y="5" ry=".5"/><rect style="opacity:.2" width="3" height="15" x="14" y="5.5" ry=".5"/><rect style="fill:#4cb094" width="3" height="15" x="14" y="5" ry=".5"/><rect style="opacity:.2" width="2" height="15" x="17" y="5.5" ry=".5"/><rect style="fill:#476eb9" width="2" height="15" x="17" y="5" ry=".5"/><rect style="opacity:.2" width="2" height="15" x="19" y="5.5" ry=".5"/><path style="opacity:.2" d="M4.494 4.5A.492.492 0 0 0 4 4.994v8.012c0 .274.22.494.494.494h1.012c.274 0 .494-.22.494-.494V4.994a.492.492 0 0 0-.494-.494zm3 0A.492.492 0 0 0 7 4.994v8.012c0 .274.22.494.494.494h1.012c.274 0 .494-.22.494-.494V4.994a.492.492 0 0 0-.494-.494zm4 0a.493.493 0 0 0-.494.494v8.012c0 .274.22.494.494.494h1.01c.274 0 .496-.22.496-.494V4.994a.494.494 0 0 0-.496-.494zm3 0a.493.493 0 0 0-.494.494v8.012c0 .274.22.494.494.494h1.01c.274 0 .496-.22.496-.494V4.994a.494.494 0 0 0-.496-.494zm3 0a.493.493 0 0 0-.494.494v8.012c0 .274.22.494.494.494h1.01c.274 0 .496-.22.496-.494V4.994a.494.494 0 0 0-.496-.494z"/><rect style="fill:#a860a2" width="2" height="15" x="19" y="5" ry=".5"/><path style="fill:#4f4f4f" d="M4.494 4A.492.492 0 0 0 4 4.494v8.012c0 .274.22.494.494.494h1.012c.274 0 .494-.22.494-.494V4.494A.492.492 0 0 0 5.506 4zm3 0A.492.492 0 0 0 7 4.494v8.012c0 .274.22.494.494.494h1.012c.274 0 .494-.22.494-.494V4.494A.492.492 0 0 0 8.506 4zm4 0a.493.493 0 0 0-.494.494v8.012c0 .274.22.494.494.494h1.01c.274 0 .496-.22.496-.494V4.494A.494.494 0 0 0 12.504 4zm3 0a.493.493 0 0 0-.494.494v8.012c0 .274.22.494.494.494h1.01c.274 0 .496-.22.496-.494V4.494A.494.494 0 0 0 15.504 4zm3 0a.493.493 0 0 0-.494.494v8.012c0 .274.22.494.494.494h1.01c.274 0 .496-.22.496-.494V4.494A.494.494 0 0 0 18.504 4z"/><path style="fill:#f4f4f7;opacity:.1" d="M2.1 3C1.49 3 1 3.47 1 4.055v.5C1 3.97 1.49 3.5 2.1 3.5h19.8c.61 0 1.1.471 1.1 1.057v-.5C23 3.47 22.51 3 21.9 3H2.1z"/><path style="opacity:.1;fill:#f4f4f7" d="M4.494 4A.492.492 0 0 0 4 4.495v.5c0-.275.22-.495.494-.495h1.012c.274 0 .494.22.494.495v-.5A.492.492 0 0 0 5.506 4zm3 0A.492.492 0 0 0 7 4.495v.5c0-.275.22-.495.494-.495h1.012c.274 0 .494.22.494.495v-.5A.492.492 0 0 0 8.506 4zm4 0a.493.493 0 0 0-.494.495v.5c0-.275.22-.495.494-.495h1.01c.274 0 .496.22.496.495v-.5A.494.494 0 0 0 12.504 4zm3 0a.493.493 0 0 0-.494.495v.5c0-.275.22-.495.494-.495h1.01c.274 0 .496.22.496.495v-.5A.494.494 0 0 0 15.504 4zm3 0a.493.493 0 0 0-.494.495v.5c0-.275.22-.495.494-.495h1.01c.274 0 .496.22.496.495v-.5A.494.494 0 0 0 18.504 4z"/></svg>
